packages/icons/svg/Universe_Bedroom_64px.svg

<svg xmlns="http://www.w3.org/2000/svg" viewBox="0 0 64 64"><path d="M55 29.87v-15A2 2 0 0053.83 13c-1.48-.67-9.47-4-21.77-4s-20.41 3.33-21.89 4A2 2 0 009 14.82v15.05a7.5 7.5 0 00-4 6.63V46a2 2 0 002 2h2v5a2 2 0 002 2h5a2 2 0 002-2v-5h28v5a2 2 0 002 2h5a2 2 0 002-2v-5h2a2 2 0 002-2v-9.5a7.5 7.5 0 00-4-6.63zM12 15.48c2.32-1 9.44-3.48 20.06-3.48A53.42 53.42 0 0152 15.48V29a4.19 4.19 0 00-.5 0H49v-5a3 3 0 00-3-3h-9a3 3 0 00-3 3v5h-4v-5a3 3 0 00-3-3h-9a3 3 0 00-3 3v5h-2.5a4.19 4.19 0 00-.5 0zM47 29H36v-5a1 1 0 011-1h9a1 1 0 011 1zm-19 0H17v-5a1 1 0 011-1h9a1 1 0 011 1zm-15.5 3h39a4.51 4.51 0 014.5 4.5V40H8v-3.5a4.51 4.51 0 014.5-4.5zM15 52h-3v-4h3zm37 0h-3v-4h3zm3-7H8v-3h48v3z"/></svg>

<svg xmlns="http://www.w3.org/2000/svg" viewBox="0 0 64 64"><defs></defs><g id="Icon"><path  d="M55,29.87v-15A2,2,0,0,0,53.83,13c-1.48-.67-9.47-4-21.77-4s-20.41,3.33-21.89,4A2,2,0,0,0,9,14.82V29.87A7.5,7.5,0,0,0,5,36.5V46a2,2,0,0,0,2,2H9v5a2,2,0,0,0,2,2h5a2,2,0,0,0,2-2V48H46v5a2,2,0,0,0,2,2h5a2,2,0,0,0,2-2V48h2a2,2,0,0,0,2-2V36.5A7.5,7.5,0,0,0,55,29.87ZM12,15.48c2.32-1,9.44-3.48,20.06-3.48A53.42,53.42,0,0,1,52,15.48V29a4.19,4.19,0,0,0-.5,0H49V24a3,3,0,0,0-3-3H37a3,3,0,0,0-3,3v5H30V24a3,3,0,0,0-3-3H18a3,3,0,0,0-3,3v5H12.5a4.19,4.19,0,0,0-.5,0ZM47,29H36V24a1,1,0,0,1,1-1h9a1,1,0,0,1,1,1ZM28,29H17V24a1,1,0,0,1,1-1h9a1,1,0,0,1,1,1ZM12.5,32h39A4.51,4.51,0,0,1,56,36.5V40H8V36.5A4.51,4.51,0,0,1,12.5,32ZM15,52H12V48h3Zm37,0H49V48h3Zm3-7H8V42H56v3Z"/></g></svg>
